T: Dark Side Of The Moor, The
M: 4/4
L: 1/8
K: Edor
||: Em | C D | Em C | D Bm | Em | C D | Em C | Bm Em :||||: Em D | C D | Em C | D | Em D | C D | Em C | Bm C :||
